X:147
T: SO HAT GOTT DIE WELT ERSCHAFFEN
N: E0731A
O: Europa, Mitteleuropa, Deutschland, Niederrhein
R: Liebes - Lied, Leid, Klage, Tod
M: 3/4
L: 1/16
K: C
G2cA | G4E2E2F2A2 | A4G4
G2cA | G4E2E2F2A2 | A4G4
GABG | c6d2cBA2 | G6
c2G2GF | E4G4GFDF | E4z4

